star-minus.svg

<svg fill="currentColor" viewBox="0 0 24 24"><path d="m5.8 21 1.6-7L2 9.2l7.2-.6L12 2l2.8 6.6 7.2.6-3.2 2.8H18c-3.1 0-5.6 2.3-6 5.3zm8.2-4v2h8v-2z"/></svg>

<svg  viewBox="0 0 24 24" fill="currentColor"><path  d="M5.8 21L7.4 14L2 9.2L9.2 8.6L12 2L14.8 8.6L22 9.2L18.8 12H18C14.9 12 12.4 14.3 12 17.3L5.8 21M14 17V19H22V17H14Z"/></svg>
